X:93
T:The Dunmore Lasses
M:C
L:1/8
K:Em
EDEF GFGA|Be (3ede Be (3ede|EDEF GFGB|ABBA GAFA|
EDEF GFGA|Beed e2 ef|gefd edBG|1 AcBA GAFG:|2 AcBA GE E2|
gfeg fedA|Be (3ede Be (3ede|gfeg fedB|AcBA GE E2|
gfeg fedA|Beed e2 ef|gefd edBG|1AcBA GE E2:|2 AcBA GAFG |>|
